svg/1f355.svg

<svg xmlns="http://www.w3.org/2000/svg" viewBox="0 0 45 45"><defs><clipPath id="a"><path d="M0 36h36V0H0v36z"/></clipPath><clipPath id="b"><path d="M5.727 30.382c-.477-.233-.539-.84-.414-1.278C5.438 28.667 16 2 16 2s1-2 2-2c1.104 0 2 2 2 2l10.704 27.22s.213.843-.569 1.229C28.391 31.311 24.047 33 18 33c-6.213 0-10.615-1.81-12.273-2.618"/></clipPath></defs><g clip-path="url(#a)" transform="matrix(1.25 0 0 -1.25 0 45)"><path d="M18 32c7.257 0 13-4 14.699-2 .197.323.301.657.301 1 0 2-6.716 5-15 5-8.284 0-15-3-15-5 0-.343.104-.677.301-1C5 28 10.743 32 18 32" fill="#f4900c"/><path d="M18 33c-6.213 0-10.616-1.81-12.273-2.618-.477-.233-.54-.84-.415-1.278C5.437 28.667 16 2 16 2s.896-2 2-2c1.105 0 2 2 2 2l10.704 27.221s.213.841-.569 1.228C28.392 31.311 24.047 33 18 33" fill="#ffcc4d"/></g><g clip-path="url(#b)" transform="matrix(1.25 0 0 -1.25 0 45)"><path d="M18 5a4 4 0 1 0-8.002.002A4 4 0 0 0 18 5M17 16a4 4 0 1 0-7.998.002A4 4 0 0 0 17 16M20 28a4 4 0 1 0-8.002.002A4 4 0 0 0 20 28M29 23a4 4 0 1 0-8.002.002A4 4 0 0 0 29 23M27 11c0-2.208-1.792-4-4-4s-4 1.792-4 4 1.792 4 4 4 4-1.792 4-4M10 24a4 4 0 1 0-8 0 4 4 0 0 0 8 0" fill="#be1931"/></g></svg>

<svg xmlns="http://www.w3.org/2000/svg" viewBox="0 0 45 45"><defs><clipPath id="a"><path d="M0 36h36V0H0v36z"/></clipPath><clipPath id="b"><path d="M5.7 30.4c-.4-.2-.5-.9-.4-1.3L16 2s1-2 2-2c1.1 0 2 2 2 2l10.7 27.2s.2.9-.6 1.2A28.3 28.3 0 0 1 18 33a28.6 28.6 0 0 1-12.3-2.6"/></clipPath></defs><g clip-path="url(#a)" transform="matrix(1.25 0 0 -1.25 0 45)"><path d="M18 32c7.3 0 13-4 14.7-2 .2.3.3.7.3 1 0 2-6.7 5-15 5S3 33 3 31c0-.3.1-.7.3-1 1.7-2 7.4 2 14.7 2" fill="#f4900c"/><path d="M18 33a28.6 28.6 0 0 1-12.3-2.6c-.4-.2-.5-.9-.4-1.3L16 2s.9-2 2-2 2 2 2 2l10.7 27.2s.2.9-.6 1.2A28.2 28.2 0 0 1 18 33" fill="#ffcc4d"/></g><g clip-path="url(#b)" transform="matrix(1.25 0 0 -1.25 0 45)"><path d="M18 5a4 4 0 1 0-8 0 4 4 0 0 0 8 0m-1 11a4 4 0 1 0-8 0 4 4 0 0 0 8 0m3 12a4 4 0 1 0-8 0 4 4 0 0 0 8 0m9-5a4 4 0 1 0-8 0 4 4 0 0 0 8 0m-2-12a4 4 0 1 0-8 0 4 4 0 0 0 8 0M10 24a4 4 0 1 0-8 0 4 4 0 0 0 8 0" fill="#be1931"/></g></svg>
